packages/IcoMoon/src/MoveDownIcon/index.svg

<svg version="1.1" xmlns="http://www.w3.org/2000/svg" width="16" height="16" viewBox="0 0 16 16">
<path d="M12 11v-6h-1v6h-2.5l3 3 3-3z"></path>
<path d="M5 4v3h-3v-3h3zM6 3h-5v5h5v-5z"></path>
<path d="M1 10h1.5v1h-1.5v-1z"></path>
<path d="M3 10h1.5v1h-1.5v-1z"></path>
<path d="M5 10h1v1.5h-1v-1.5z"></path>
<path d="M1 13.5h1v1.5h-1v-1.5z"></path>
<path d="M2.5 14h1.5v1h-1.5v-1z"></path>
<path d="M4.5 14h1.5v1h-1.5v-1z"></path>
<path d="M1 11.5h1v1.5h-1v-1.5z"></path>
<path d="M5 12h1v1.5h-1v-1.5z"></path>
</svg>

<svg xmlns="http://www.w3.org/2000/svg" viewBox="0 0 16 16">
  <path d="M12 11V5h-1v6H8.5l3 3 3-3zM5 4v3H2V4h3zm1-1H1v5h5V3zm-5 7h1.5v1H1v-1zm2 0h1.5v1H3v-1zm2 0h1v1.5H5V10zm-4 3.5h1V15H1v-1.5zm1.5.5H4v1H2.5v-1zm2 0H6v1H4.5v-1zM1 11.5h1V13H1v-1.5zm4 .5h1v1.5H5V12z"/>
</svg>
